Papirus/32x32/mimetypes/text-x-chdr.svg

<svg width="32" height="32" version="1.1" xmlns="http://www.w3.org/2000/svg">
 <path d="m6.375 3c-0.76175 0-1.375 0.6244-1.375 1.4v25.2c0 0.77504 0.61325 1.4 1.375 1.4h19.25c0.7612 0 1.375-0.62496 1.375-1.4v-17.6l-7-2-2-7z" style="opacity:.2"/>
 <path d="m6.375 2c-0.76175 0-1.375 0.6244-1.375 1.4v25.2c0 0.77504 0.61325 1.4 1.375 1.4h19.25c0.7612 0 1.375-0.62496 1.375-1.4v-17.6l-7-2-2-7z" style="fill:#c75bdc"/>
 <path d="m27 12-9-9v7.59375c0 0.779625 0.62775 1.40625 1.40625 1.40625z" style="opacity:.2"/>
 <path d="m27 11-9-9v7.59375c0 0.779625 0.62775 1.40625 1.40625 1.40625z" style="fill:#da7cec"/>
 <path d="M 6.375,2 C 5.61325,2 5,2.6247906 5,3.4003906 v 1 C 5,3.6247906 5.61325,3 6.375,3 H 18 V 2 Z" style="fill:#ffffff;opacity:.1"/>
 <path d="m15 15v11-4s0-3 3-3 3 3 3 3v3" style="fill:none;stroke-linecap:square;stroke-width:2;stroke:#ffffff"/>
 <rect x="9" y="24" width="2" height="2" style="fill:#ffffff"/>
</svg>

<svg xmlns="http://www.w3.org/2000/svg" width="32" height="32" version="1.1">
 <path style="opacity:0.2" d="M 6.375,3 C 5.61325,3 5,3.6244 5,4.4 V 29.6 C 5,30.37504 5.61325,31 6.375,31 h 19.25 C 26.3862,31 27,30.37504 27,29.6 V 12 L 20,10 18,3 Z"/>
 <path style="fill:#e4e4e4" d="M 6.375,2 C 5.61325,2 5,2.6244 5,3.4 V 28.6 C 5,29.37504 5.61325,30 6.375,30 h 19.25 C 26.3862,30 27,29.37504 27,28.6 V 11 L 20,9 18,2 Z"/>
 <path style="opacity:0.2" d="M 27,12 18,3 v 7.59375 C 18,11.373375 18.62775,12 19.40625,12 Z"/>
 <path style="fill:#fafafa" d="M 27,11 18,2 V 9.59375 C 18,10.373375 18.62775,11 19.40625,11 Z"/>
 <path style="opacity:0.2;fill:#ffffff" d="M 6.375,2 C 5.61325,2 5,2.6247906 5,3.4003906 v 1 C 5,3.6247906 5.61325,3 6.375,3 H 18 V 2 Z"/>
 <path style="fill:#c554d9" d="m 16,15 v 11 h 2 v -5 h 2 v 5 h 2 v -7 h -4 v -4 z m -4.5,8 A 1.5,1.5 0 0 0 10,24.5 1.5,1.5 0 0 0 11.5,26 1.5,1.5 0 0 0 13,24.5 1.5,1.5 0 0 0 11.5,23 Z"/>
</svg>
